X:1
T:James Gibb editions
T:Vias tuas, Domine - Pitoni
T:#
%%score [ 1 2 3 4 ]
L:1/8
Q:1/4=92
M:4/4
K:A
V:1 treble nm="Soprano" snm="S"
V:2 treble nm="Alto" snm="A"
V:3 treble-8 nm="Tenor" snm="T"
V:4 bass nm="Bass" snm="B"
V:1
"^allegro moderato""^Giuseppe Ottavio Pitoni\n(1657-1743)"!p!"^Psalm 24:4b (Vulgate)" B6 B2 | %1
w: Vi- as|
 B3"^Vias tuas, Domine" B !>!c3 c | B2 E2 G2 B2 | (AG GF/E/ F4) |[M:4/4] G4!mf! G3 G | F2 G2 A3 A | %6
w: tu- as, Do- mi-|ne, de- mon- stra|mi\- * * * * *|hì, vi- as|tu as, Do- mi-|
 G2!f! (e3 d ^cB | c2) c2 B2 c2 | !>!d3 d c2 A2 | c2 e2 (!>!dc cB/A/ | B6 A2 |!>(! B4) |] %12
w: ne, vi\- * * *|* as tu- as,|Do- mi- ne, de-|mon- stra mi\- * * * *|||
[M:3/4][Q:1/4=112] B4!f! G2 | A3 A A2 | G2 G2 B2 | B3 B B2 | %16
w: hi, et|se- mi- tas|tu- as, et|se- mi- tas|
[Q:1/4=112][Q:1/4=112][Q:1/4=112][Q:1/4=112] ^A4 B2 | B3 B ^A2 | B6 | z2 z2!mf! B2 | %20
w: tu- as|e- do- ce|me,|et|
 c3 B !courtesy!=A2 |[Q:1/4=109] B4[Q:1/4=105] B2 |[Q:1/4=101] B3"^rit."[Q:1/4=99] B[Q:1/4=97] B2 | %23
w: se- mi- tas|tu- as|e- do- ce|
[Q:1/4=96] !fermata!c6!>)! |] %24
w: me.|
V:2
!p! G6 G2 | F2 G2 !>!A3 A | (G3 F E2) B,2 | C>^D (E3 D/C/ D2) |[M:4/4] E4!mf! E3 E | F2 E2 E3 E | %6
w: Vi- as|tu- as, Do- mi-|ne, * * de-|mon- stra mi\- * * *|hi. vi- as|tu- as, Do- mi-|
 E4 z2!f! A2- | A2 A2 B2 A2 | !>!A3 A A4- | A2 E2 F2 A(!>!A- | AG/F/ G2 E4 |!>(! F4) |] %12
w: ne, vi\-|* as tu- as,|Do- mi- ne,|* de- mon- stra mi\-|||
[M:3/4] G4!f! E2 | E3 E ^D2 | E2 E2 G2 | F3 F E2 | F4 G2 | F3 F F2 | F4!mf! F2 | G3 G G2 | %20
w: hi, et|se- mi- tas|tu- as, et|se- mi- tas|tu- as|e- do- ce|me, et|se- mi- tas,|
 A2 E2 F2 | G3 G A2 | A3"^rit." G G2 | !fermata!A6!>)! |] %24
w: se- mi- tas|e- do- ce,|e- do- ce|me.|
V:3
"^e"!p! e6 e2 | ^d2 e2 !>!A3 A | e4 E4 | A2 c2 B4 |[M:4/4][K:treble-8] E2!mf! B4 B2 | B3 B c3 c | %6
w: Vi- as|tu- as, Do- mi-|ne, de-|mon- stra mi-|hi, vi- as|tu- as, Do- mi-|
 B4!f! (c3 =d) | e4 e3 e | !>!f3 f (edcB | A2) c2 d2 f2 | (e3 !courtesy!=dcd e2- |!>(! e2 ^d2) |] %12
w: ne. vi\- *|as tu- as,|Do- mi- ne, * * *|* de- mon- stra|mi\- * * * *||
[M:3/4][K:treble-8] e4!f! B2 | c3 B A2 | B2 B2 e2 | =d3 c B2 | c4 c2 | c3 c c2 | ^d4!mf! B2 | %19
w: hi, et.|se- mi- tas|tu- as, et|se- mi- tas|tu- as|e- do- ce|me, et|
 e3 e e2 | e2 A4 | e3 e f2 | e3"^rit." e e2 | !fermata!e6!>)! |] %24
w: se- mi- tas|tu- as|e- do- ce,|e- do- ce|me.|
V:4
 z8 | z8 | z8 | z8 |[M:4/4]!mf! E,6 E,2 | ^D,2 E,2 A,,3 A,, | E,4!f! A,4- | A,2 .A,2 G,2 A,2 | %8
w: ||||Vi- as|tu- as, Do- mi-|ne, vi\-|* as tu- as,|
 !>!=D,3 D, A,4 | z8 | z2 E,2 A,2 C2 |!>(! B,4 |][M:3/4] E,4!f! E,2 | A,3 G, F,2 | E,2 E,2 E,2 | %15
w: Do- mi- ne,||de- mon- stra|mi-|hi, et|se- mi- tas|tu- as, et|
 B,3 A, =G,2 | F,4 ^E,2 | F,3 F, F,2 | B,,6 | z2 z2!mf! E,2 | A,3 G, F,2 | E,4 ^D,2 | %22
w: se- mi- tas|tu- as|e- do- ce|me,|et|se- mi- tas|tu- as|
 E,3"^rit." E, E,2 | !fermata![A,,A,]6!>)! |] %24
w: e- do- ce|me.|

